X: 126
T:Valse a Bonnejoie
M:3/4
L:1/4
R:Valse
Z:Steve Mansfield
K:D
FAB | Ade | fdB | A3 | GFG | BAG |1F3 | E3 :|2 FGE | D3 |
|: FF/A/F/A/ | FF/A/F/A/ | FF/A/F/A/ | G3 | E/F/G/A/G | GFG | GFE |1 F2D :|2 D3 ||

